dbux-code/resources/light/edit.svg

<?xml version="1.0" encoding="UTF-8"?>
<svg xmlns="http://www.w3.org/2000/svg" xmlns:xlink="http://www.w3.org/1999/xlink" width="16pt" height="16pt" viewBox="0 0 16 16" version="1.1">
<g id="surface1">
<path style=" stroke:none;fill-rule:nonzero;fill:rgb(25.882353%,25.882353%,25.882353%);fill-opacity:1;" d="M 14.597656 4.25 L 12.910156 6 L 9.910156 3 L 11.597656 1.25 Z M 8.910156 4 L 1.910156 11 L 4.910156 14 L 11.910156 7 Z M 1 12.089844 L 1 15 L 3.910156 15 Z M 1 12.089844 "/>
</g>
</svg>

<svg xmlns="http://www.w3.org/2000/svg" width="16" height="16"><style type="text/css">.icon-canvas-transparent{opacity:0;fill:#F6F6F6;} .icon-vs-out{fill:#F6F6F6;} .icon-vs-bg{fill:#424242;}</style><path class="icon-canvas-transparent" d="M16 16h-16v-16h16v16z" id="canvas"/><path class="icon-vs-out" d="M16 4.28l-11.673 11.72h-4.327v-4.406l11.477-11.594h.308l4.215 4.237v.043z" id="outline" style="display: none;"/><path class="icon-vs-bg" d="M14.598 4.25l-1.688 1.75-3-3 1.688-1.75 3 3zm-5.688-.25l-7 7 3 3 7-7-3-3zm-7.91 8.09v2.91h2.91l-2.91-2.91z" id="iconBg"/></svg>
